docs/images/icons/tic-tok.svg

<svg width="18" height="18" viewBox="0 0 18 18" fill="none" xmlns="http://www.w3.org/2000/svg">
<path d="M10.1085 3.92226L10.1009 3.74742L10.1085 3.92226C10.1825 3.91908 10.2564 3.93077 10.3258 3.95665C10.3953 3.98253 10.4588 4.02206 10.5127 4.07292C10.5666 4.12378 10.6097 4.18493 10.6396 4.25276C10.6693 4.32022 10.6852 4.39292 10.6864 4.46661C10.6872 5.77958 11.7358 6.8277 13.0489 6.82771L13.0514 6.82768C13.1248 6.82664 13.1978 6.84021 13.2659 6.86759C13.3341 6.89498 13.3961 6.93563 13.4484 6.9872C13.5007 7.03876 13.5422 7.1002 13.5705 7.16796C13.5989 7.23571 13.6135 7.30842 13.6135 7.38186C13.6135 7.45531 13.5989 7.52802 13.5705 7.59577C13.5422 7.66352 13.5007 7.72497 13.4484 7.77653C13.3961 7.82809 13.3341 7.86875 13.2659 7.89613C13.1978 7.92352 13.1248 7.93709 13.0514 7.93605V7.93603H13.0489C12.2627 7.93603 11.5632 7.62375 10.9685 7.1637L10.6864 6.94547V7.30211V11.0277C10.6864 12.8018 9.23276 14.2555 7.45866 14.2555C5.68456 14.2555 4.23088 12.8018 4.23088 11.0277C4.23088 9.2536 5.68456 7.79992 7.45866 7.79994L7.46113 7.7999C7.53457 7.79886 7.60748 7.81243 7.67563 7.83981C7.74377 7.8672 7.8058 7.90785 7.8581 7.95942C7.9104 8.01098 7.95192 8.07243 7.98027 8.14018C8.00861 8.20793 8.02321 8.28064 8.02321 8.35408C8.02321 8.42753 8.00861 8.50024 7.98027 8.56799C7.95192 8.63574 7.9104 8.69719 7.8581 8.74875C7.8058 8.80032 7.74377 8.84097 7.67563 8.86836C7.60748 8.89574 7.53457 8.90931 7.46113 8.90827L7.46113 8.90825H7.45866C6.27915 8.90825 5.33921 9.84819 5.33921 11.0277C5.33921 12.2072 6.27915 13.1471 7.45866 13.1471C8.63817 13.1471 9.5781 12.2072 9.5781 11.0277V4.46659C9.58049 4.32558 9.63655 4.19078 9.73488 4.08964C9.83348 3.98822 9.96713 3.92834 10.1085 3.92226ZM0.341992 3.00686C0.341992 1.63557 1.46931 0.508252 2.8406 0.508252H14.9934C16.3647 0.508252 17.492 1.63557 17.492 3.00686V15.1596C17.492 16.5309 16.3647 17.6583 14.9934 17.6583H2.8406C1.46931 17.6583 0.341992 16.5309 0.341992 15.1596V3.00686ZM14.9934 1.61659H2.8406C2.06426 1.61659 1.45033 2.23052 1.45033 3.00686V15.1596C1.45033 15.936 2.06426 16.5499 2.8406 16.5499H14.9934C15.7697 16.5499 16.3837 15.936 16.3837 15.1596V3.00686C16.3837 2.23052 15.7697 1.61659 14.9934 1.61659Z" fill="#333333" stroke="white" stroke-width="0.35"/>
</svg>

<svg width="18" height="18" fill="none" xmlns="http://www.w3.org/2000/svg"><path d="m10.108 3.922-.007-.175.007.175a.554.554 0 0 1 .578.545 2.351 2.351 0 0 0 2.363 2.36h.002a.554.554 0 1 1 0 1.109h-.002c-.786 0-1.486-.312-2.08-.772l-.283-.219v4.083a3.239 3.239 0 0 1-3.227 3.227 3.239 3.239 0 0 1-3.228-3.227A3.239 3.239 0 0 1 7.459 7.8h.002a.554.554 0 1 1 0 1.108H7.46c-1.18 0-2.12.94-2.12 2.12 0 1.18.94 2.12 2.12 2.12 1.18 0 2.12-.94 2.12-2.12V4.467a.554.554 0 0 1 .53-.545ZM.342 3.007A2.51 2.51 0 0 1 2.841.508h12.152a2.51 2.51 0 0 1 2.499 2.499V15.16a2.51 2.51 0 0 1-2.499 2.498H2.841A2.51 2.51 0 0 1 .342 15.16V3.007Zm14.651-1.39H2.841a1.38 1.38 0 0 0-1.39 1.39V15.16c0 .776.613 1.39 1.39 1.39h12.152a1.38 1.38 0 0 0 1.39-1.39V3.007a1.38 1.38 0 0 0-1.39-1.39Z" fill="#333" stroke="#fff" stroke-width=".35"/></svg>
